**kern	**text
*clefG2	*
*k[b-]	*
*M4/4	*
*MM154	*
=1	=1
16d	だ
64r	.
32.d	い
8r	.
6d	た
12c	ん
8dL	ふ
8f	て
8f	き
8gJ	に
=2	=2
16d	は
64r	.
32.d	い
8r	.
6d	か
12c	ら
8dL	か
8c	く
8A	め
8cJ	い
=3	=3
16d	ら
64r	.
32.d	い
8r	.
6d	ら
12c	い
8dL	ら
8f	く
8f	ら
8gJ	く
=4	=4
8aL	は
8aJ	ん
6g	せ
12g	ん
4f'	こ
4d'	か
=5	=5
6d	ひ
12d	の
6d	ま
12c	る
8dL	じ
8f	る
8f	し
8gJ	の
=6	=6
8.dL	に
16dJk	り
8dL	ん
8cJ	しゃ
8dL	こ
8c	ろ
8c	が
8AJ	し
=7	=7
8.dL	あ
16dJk	く
8dL	りょ
8cJ	お
8dL	た
8f	い
8f	さ
8gJ	ん
=8	=8
8aL	あ
8aJ	い
4g	し
4f	び
8dL	え
8cJ	む
=9	=9
[8fL	か
32fKL]	.
16.fJJ	ん
4e	じょ
8dL	せ
8dJ	ん
4c	お
=10	=10
8cL	は
*clefF4	*
16cL	し
16dJJ	り
8AL	ぬ
8GJ	け
4A	て
4r	.
*clefG2	*
=11	=11
8AL	と
8c	お
8d	ほ
8dJ	ん
4g	せ
4e	そ
=12	=12
8fL	な
8f	ん
8e	の
8cJ	そ
4d	の
4r	.
=13	=13
4f	しょ
8eL	ね
8eJ	ん
4d	しょ
4c'	じょ
=14	=14
16cLL	せ
16c	ん
16c	ご
16dJJ	く
*clefF4	*
8AL	む
8GJ	そ
4A	お
8AL	う
8cJ	き
*clefG2	*
=15	=15
8dL	よ
8dJ	の
8r	.
8d	ま
4f	に
4g	ま
=16	=16
2e	に
4r	.
8dL	せ
8fJ	ん
=17	=17
*^	*
12g	16r	ぼ
.	8.g'	ん
12r	.	.
[12g	.	ざ
8gL]	4r	.
8aJ	.	く
4a	2r	ら
8r	.	.
8a	.	よ
*v	*v	*
=18	=18
8ccL	る
8dd	に
8g	ま
8fJ	ぎ
4a'	れ
8dL	き
8fJ	み
=19	=19
8.gL	の
[16gJk	こ
8gL]	.
8aJ	え
4a	も
8r	.
8a	と
=20	=20
8b-L	ど
8a	か
8g	な
8fJ	い
4f'	よ
8dL	こ
8fJ	こ
=21	=21
8.g'L	わ
[16gJk	う
8gL]	.
8aJ	た
4a	げ
8r	.
8a	は
=22	=22
8ccL	が
8dd	ね
8g	の
8fJ	お
4a'	り
8dL	そ
8fJ	の
=23	=23
8b-L	だ
8b-J	ん
4a	と
8gL	だ
8gJ	い
4f'	で
=24	=24
8gL	み
8a	お
8d	ろ
8cJ	し
4d'	て
8dL	さ
8fJ	ん
=25	=25
16gKL	ぜ
8g'	ん
[16gJk	せ
8gL]	.
8aJ	か
4a	い
8r	.
8a	と
=26	=26
8ccL	こ
8dd	よ
8g	の
8fJ	や
4a'	み
8dL	な
8fJ	げ
=27	=27
8.gL	く
[16gJk	う
8gL]	.
8aJ	た
4a	も
8r	.
8a	き
=28	=28
8b-L	こ
8a	え
8g	な
8fJ	い
4f'	よ
8dL	せ
8fJ	い
=29	=29
12gL	ら
12g	ん
[12gJ	の
8gL]	.
8aJ	そ
4.a	ら
8a	は
=30	=30
8ccL	る
8dd	か
8g	か
8fJ	な
4a'	た
8dL	そ
8fJ	の
=31	=31
4b-	こ
[8aL	せ
32aKL]	.
16.aJJ	ん
4g	じゅ
4f'	で
=32	=32
8gL	う
8f	ち
8a	ぬ
8ccJ	い
2dd	て
=33	=33
1r	.
=34	=34
1r	.
=35	=35
1r	.
=36	=36
1r	.
=37	=37
1r	.
=38	=38
1r	.
=39	=39
1r	.
=40	=40
1r	.
=41	=41
8.dL	ひゃ
16dJk	く
6d	せ
12c	ん
8dL	れ
8f	ん
8f	ま
8gJ	の
=42	=42
8.dL	み
16dJk	た
8dL	め
8cJ	わ
8dL	しょ
8c	お
8A	こ
8cJ	お
=43	=43
4d'	い
6d	た
12c	り
8dL	き
8f	た
8f	り
8gJ	の
=44	=44
8.aL	お
16aJk	い
6g	ら
12g	ん
4f	ど
4d'	ちゅ
=45	=45
6d	あ
12d	い
6d	つ
12c	も
8dL	こ
8f	い
8f	つ
8gJ	も
=46	=46
8.dL	み
16dJk	ん
8.dL	な
16cJk	で
8dL	あ
8c	つ
8c	ま
8AJ	れ
=47	=47
8.dL	せ
16dJk	い
8dL	じゃ
8cJ	の
8dL	こ
8f	お
8f	し
8gJ	ん
=48	=48
8aL	わ
8aJ	ん
4g	つ
8fL	さ
8fJ	ん
4d'	し
=49	=49
[8fL	ぜ
32fKL]	.
16.fJJ	ん
4e	じょ
8dL	も
8dJ	ん
4c	お
=50	=50
8cL	く
*clefF4	*
16cL	ぐ
16dJJ	り
8AL	ぬ
8GJ	け
4A	て
4r	.
*clefG2	*
=51	=51
8AL	あ
8c	ん
8d	ら
8dJ	く
4g	じょ
4e	ど
=52	=52
8fL	や
8f	く
8e	ば
8cJ	ら
4d	い
4r	.
=53	=53
4f'	き
4e	と
8dL	さ
8d	い
8c	ご
8cJ	わ
=54	=54
8cL	だ
8d	い
*clefF4	*
8A	だ
8GJ	ん
16AKL	え
8.A'J	ん
8AL	は
*clefG2	*
8cJ	く
=55	=55
8dL	しゅ
8dJ	の
8r	.
8d	あ
4f	い
4g	ま
=56	=56
2e	に
4r	.
8dL	せ
8fJ	ん
=57	=57
*^	*
12g	16r	ぼ
.	8.g'	ん
12r	.	.
[12g	.	ざ
8gL]	4r	.
8aJ	.	く
4a	2r	ら
8r	.	.
8a	.	よ
*v	*v	*
=58	=58
8ccL	る
8dd	に
8g	ま
8fJ	ぎ
4a'	れ
8dL	き
8fJ	み
=59	=59
8.gL	の
[16gJk	こ
8gL]	.
8aJ	え
4a	も
8r	.
8a	と
=60	=60
8b-L	ど
8a	か
8g	な
8fJ	い
4f'	よ
8dL	こ
8fJ	こ
=61	=61
8.g'L	わ
[16gJk	う
8gL]	.
8aJ	た
4a	げ
8r	.
8a	は
=62	=62
8ccL	が
8dd	ね
8g	の
8fJ	お
4a'	り
8dL	そ
8fJ	の
=63	=63
8b-L	だ
8b-J	ん
4a	と
8gL	だ
8gJ	い
4f'	で
=64	=64
8gL	み
8a	お
8d	ろ
8cJ	し
4d'	て
8dL	さ
8fJ	ん
=65	=65
16gKL	ぜ
8g'	ん
[16gJk	せ
8gL]	.
8aJ	か
4a	い
8r	.
8a	と
=66	=66
8ccL	こ
8dd	よ
8g	の
8fJ	や
4a'	み
8dL	な
8fJ	げ
=67	=67
8.gL	く
[16gJk	う
8gL]	.
8aJ	た
4a	も
8r	.
8a	き
=68	=68
8b-L	こ
8a	え
8g	な
8fJ	い
4f'	よ
8dL	き
8fJ	ぼ
=69	=69
8.gL	お
[16gJk	の
8gL]	.
8aJ	お
4.a	か
8a	は
=70	=70
8ccL	る
8dd	か
8g	か
8fJ	な
4a'	た
8dL	そ
8fJ	の
=71	=71
[8b-L	せ
32b-KL]	.
16.b-JJ	ん
4a	こ
[8gL	だ
32gKL]	.
16.gJJ	ん
4f'	を
=72	=72
8gL	う
8f	ち
8a	あ
8ccJ	げ
2dd	ろ
=73	=73
1r	.
=74	=74
1r	.
=75	=75
1r	.
=76	=76
1r	.
=77	=77
1r	.
=78	=78
1r	.
=79	=79
1r	.
=80	=80
1r	.
=81	=81
1r	.
=82	=82
1r	.
=83	=83
1r	.
=84	=84
1r	.
=85	=85
1r	.
=86	=86
1r	.
=87	=87
1r	.
=88	=88
1r	.
=89	=89
1r	.
=90	=90
1r	.
=91	=91
1r	.
=92	=92
1r	.
=93	=93
[8fL	か
32fKL]	.
16.fJJ	ん
4e	じょ
8dL	せ
8dJ	ん
4c	お
=94	=94
8cL	は
*clefF4	*
16cL	し
16dJJ	り
8AL	ぬ
8GJ	け
4A	て
4r	.
*clefG2	*
=95	=95
8AL	と
8c	お
8d	ほ
8dJ	ん
4g	せ
4e	そ
=96	=96
8fL	な
8f	ん
8e	の
8cJ	そ
4d	の
4r	.
=97	=97
4f	しょ
8eL	ね
8eJ	ん
4d	しょ
4c'	じょ
=98	=98
16cLL	せ
16c	ん
16c	ご
16dJJ	く
*clefF4	*
8AL	む
8GJ	そ
4A	お
8AL	う
8cJ	き
*clefG2	*
=99	=99
8dL	よ
8dJ	の
8r	.
8d	ま
4f	に
4g	ま
=100	=100
2e	に
4r	.
8dL	せ
8fJ	ん
=101	=101
*^	*
12g	16r	ぼ
.	8.g'	ん
12r	.	.
[12g	.	ざ
8gL]	4r	.
8aJ	.	く
4a	2r	ら
8r	.	.
8a	.	よ
*v	*v	*
=102	=102
8ccL	る
8dd	に
8g	ま
8fJ	ぎ
4a'	れ
8dL	き
8fJ	み
=103	=103
8.gL	の
[16gJk	こ
8gL]	.
8aJ	え
4a	も
8r	.
8a	と
=104	=104
8b-L	ど
8a	か
8g	な
8fJ	い
4f'	よ
8dL	こ
8fJ	こ
=105	=105
8.g'L	わ
[16gJk	う
8gL]	.
8aJ	た
4a	げ
8r	.
8a	は
=106	=106
8ccL	が
8dd	ね
8g	の
8fJ	お
4a'	り
8dL	そ
8fJ	の
=107	=107
8b-L	だ
8b-J	ん
4a	と
8gL	だ
8gJ	い
4f'	お
=108	=108
8gL	と
8a	び
8g	お
8aJ	り
4a'	て
8eL	せ
8gJ	ん
=109	=109
*^	*
12a	16r	ぼ
.	8.a'	ん
12r	.	.
[12a	.	ざ
8aL]	4r	.
8bnJ	.	く
4b	2r	ら
8r	.	.
8b	.	よ
*v	*v	*
=110	=110
8ddL	る
8ee	に
8a	ま
8gJ	ぎ
4bn'	れ
8eL	き
8gJ	み
=111	=111
8.aL	わ
[16aJk	う
8aL]	.
8bnJ	た
4b	い
8r	.
8b	ぼ
=112	=112
8ccL	く
8bn	わ
8a	お
8gJ	ど
4g'	る
8eL	こ
8gJ	こ
=113	=113
8.a'L	わ
[16aJk	う
8aL]	.
8bnJ	た
4b	げ
8r	.
8b	は
=114	=114
8ddL	が
8ee	ね
8a	の
8gJ	お
4bn'	り
8eL	さ
8gJ	あ
=115	=115
4cc	こ
8bnL	せ
8bJ	ん
4a	じゅ
4g'	お
=116	=116
8aL	う
8g	ち
8bn	ま
8ddJ	く
[2ee	れ
=117	=117
4ee]	.
4r	.
2r	.
==	==
*-	*-
